!!!OTL: 400. Lass ab, es ist umsonst!
!!!ODT: 1603
!!!ARE: Europa, Mitteleuropa, Deutschland
!!!SCT: E0400
!!!TXL: @@DE
!!!YEM: Copyright 1995, estate of Helmut Schaffrath.
**kern	**text
*ICvox	*
*M4/4	*
*met(c)	*
*k[f#c#g#]	*
*A:	*
{4e	Mit
=1	=1
8aL	Lieb
8bJ	.
8cc#L	bin
8bJ	.
8aL	ich
8g#J	.
8f#L	um-
8eJ	.
=2	=2
2f#	-fan-
4f#}	-gen,
{4a	Herʒ-
=3	=3
8f#L	-al-
8g#J	.
4a	-ler-
8g#L	-lieb-
8aJ	.
8bL	-ste
8g#J	.
=4	=4
2a	mein!
4r}	.
{4e	Nach
=5	=5
8aL	dir
8bJ	.
8cc#L	ſteht
8bJ	.
8aL	mein
8g#J	.
8f#L	Ver-
8eJ	.
=6	=6
2f#	-lan-
4f#}	-gen,
{4a	wenn
=7	=7
8f#L	es
8g#J	.
4a	nur
8g#L	könnt
8aJ	.
8bL	ge-
8g#J	.
=8	=8
2a	-sein!
4r}	.
{4cc#	Könnt
=9	=9
4b	ich
4ee	dein
4dd	Gunſt
4cc#	er-
=10	=10
2b	-wer-
4b}	-ben,
{4ee	käm
=11	=11
4dd	ich
4cc#	aus
4b/	gro-
4a	-ßer
=12	=12
2g#	Noth,
4r}	.
{4e	viel
=13	=13
8aL	lie-
8bJ	.
8ccnL	-ber
8bJ	.
8aL	wollt
8gnJ	.
8f#L	ich
8eJ	.
=14	=14
2f#	ſter-
4f#}	-ben,
{4a	wün-
=15	=15
8f#L	-ſchen
8g#J	.
4a	mir
8g#L	ſelbs
8aJ	.
8bL	den
8g#J	.
=16	=16
2a	Tod.
4r}	.
==	==
!!!AGN: Liebes - Lied
!!!ONB: ESAC (Essen Associative Code) Database: ERK1
!!!AMT: simple quadruple
!!!AIN: vox
!!!EED: Helmut Schaffrath
!!!EEV: 1.0
!!!GTL: Liebeslieder [Alte (aus dem 13. bis 17. Jahrh.) mit ihrem jungen Nachwuchs]
!!!URL-scan: https://rosdok.uni-rostock.de/mcrviewer/recordIdentifier/rosdok_ppn745177662/iview2/phys_0216.iview2?x=-2295.2751196172253&y=396.1186602769885&scale=0.23831242873432154&rotation=0&layout=singlePageLayout
!!!ENC: Anna Maria Matuszewska
!!!EEV: 2024/09/12
*-	*-
